!!!SOCIAL_FUNCTION:	klokali songs
!!!PDT:	1939
!!!OTL: No__43_"We_Make_You_Join_the_Klokali".krn
!!!LANG: Non-Tone
!!!LING_GROUP: Wakashan
!!!REG: Pacific Northwest
**kern
*staff1
=1-
*clefF4
*k[f#c#]
*M2/4
4r
8.B\L
16e\Jk
=2||
*M5/4
[2e\
2e\]
4d\
=3||
*M2/4
4e\
8r
16r
16e\
=4
4..e\
16e\
=5||
*M3/4
2e\
4d\
=6
4B\
[4d\
8d\L]
8B\J
=7
8B\L
8B\J
4A\
4r
=8
8B\L
8A\J
2B\
=9||
*M2/4
4.d\
8B\
=10||
*M3/4
8B\L
8B\J
4A\
8B\L
8B\J
=11
4B\
8r
16r
16B\
8.B\L
16e\Jk
=12
2e\
8d\L
8B\J
=13||
4d\
8d\L
8B\J
=14||
8B\L
8B\J
4B\
8r
8d\
=15||
*M2/4
4d\
8B\L
8A\J
=16
4B\
8F#\L
8B\J
=17||
*M3/4
4.d\
8B\
8B\L
8A\J
=18||
*M2/4
4.B\
8r
=19||
*M3/4
8d\L
[8d\J
8d\L]
8B\J
12B\L
12B\
12A\J
=20
8B\L
[8B\J
4B\]
4r
==
*-
